packages/dnb-eufemia/assets/icons/loupe_medium.svg

<svg width="24" height="24" viewBox="0 0 24 24" fill="none" xmlns="http://www.w3.org/2000/svg">
<path d="M18.0303 16.9697C17.7374 16.6768 17.2626 16.6768 16.9697 16.9697C16.6768 17.2626 16.6768 17.7374 16.9697 18.0303L18.0303 16.9697ZM22.4697 23.5303C22.7626 23.8232 23.2374 23.8232 23.5303 23.5303C23.8232 23.2374 23.8232 22.7626 23.5303 22.4697L22.4697 23.5303ZM16.9697 18.0303L22.4697 23.5303L23.5303 22.4697L18.0303 16.9697L16.9697 18.0303ZM17.25 9.5C17.25 13.7802 13.7802 17.25 9.5 17.25V18.75C14.6086 18.75 18.75 14.6086 18.75 9.5H17.25ZM9.5 17.25C5.21979 17.25 1.75 13.7802 1.75 9.5H0.25C0.25 14.6086 4.39137 18.75 9.5 18.75V17.25ZM1.75 9.5C1.75 5.21979 5.21979 1.75 9.5 1.75V0.25C4.39137 0.25 0.25 4.39137 0.25 9.5H1.75ZM9.5 1.75C13.7802 1.75 17.25 5.21979 17.25 9.5H18.75C18.75 4.39137 14.6086 0.25 9.5 0.25V1.75Z" fill="black"/>
</svg>

<svg width="24" height="24" viewBox="0 0 24 24" fill="none" xmlns="http://www.w3.org/2000/svg"><path d="M18.03 16.97a.75.75 0 1 0-1.06 1.06l1.06-1.06Zm4.44 6.56a.75.75 0 1 0 1.06-1.06l-1.06 1.06Zm-5.5-5.5 5.5 5.5 1.06-1.06-5.5-5.5-1.06 1.06Zm.28-8.53a7.75 7.75 0 0 1-7.75 7.75v1.5a9.25 9.25 0 0 0 9.25-9.25h-1.5ZM9.5 17.25A7.75 7.75 0 0 1 1.75 9.5H.25a9.25 9.25 0 0 0 9.25 9.25v-1.5ZM1.75 9.5A7.75 7.75 0 0 1 9.5 1.75V.25A9.25 9.25 0 0 0 .25 9.5h1.5ZM9.5 1.75a7.75 7.75 0 0 1 7.75 7.75h1.5A9.25 9.25 0 0 0 9.5.25v1.5Z" fill="#000"/></svg>
